dist/icons/svgs/window-solid.svg

<svg xmlns="http://www.w3.org/2000/svg" width="24" height="24" fill="currentcolor" class="icon-window-solid" viewBox="0 0 24 24">
  <path d="M22 5.75V18.25C22 19.6562 20.8672 20.75 19.5 20.75H4.5C3.09375 20.75 2 19.6562 2 18.25V5.75C2 4.38281 3.09375 3.25 4.5 3.25H19.5C20.8672 3.25 22 4.38281 22 5.75ZM5.75 5.75C5.04688 5.75 4.5 6.33594 4.5 7C4.5 7.70312 5.04688 8.25 5.75 8.25C6.41406 8.25 7 7.70312 7 7C7 6.33594 6.41406 5.75 5.75 5.75ZM8.25 7C8.25 7.70312 8.79688 8.25 9.5 8.25C10.1641 8.25 10.75 7.70312 10.75 7C10.75 6.33594 10.1641 5.75 9.5 5.75C8.79688 5.75 8.25 6.33594 8.25 7ZM13.25 5.75C12.5469 5.75 12 6.33594 12 7C12 7.70312 12.5469 8.25 13.25 8.25C13.9141 8.25 14.5 7.70312 14.5 7C14.5 6.33594 13.9141 5.75 13.25 5.75Z"/>
</svg>

<svg xmlns="http://www.w3.org/2000/svg" width="24" height="24" fill="currentColor" class="icon-window-solid" viewBox="0 0 24 24">
  <path d="M22 5.75v12.5c0 1.406-1.133 2.5-2.5 2.5h-15a2.47 2.47 0 0 1-2.5-2.5V5.75c0-1.367 1.094-2.5 2.5-2.5h15c1.367 0 2.5 1.133 2.5 2.5m-16.25 0c-.703 0-1.25.586-1.25 1.25 0 .703.547 1.25 1.25 1.25C6.414 8.25 7 7.703 7 7c0-.664-.586-1.25-1.25-1.25M8.25 7c0 .703.547 1.25 1.25 1.25.664 0 1.25-.547 1.25-1.25 0-.664-.586-1.25-1.25-1.25-.703 0-1.25.586-1.25 1.25m5-1.25C12.547 5.75 12 6.336 12 7c0 .703.547 1.25 1.25 1.25.664 0 1.25-.547 1.25-1.25 0-.664-.586-1.25-1.25-1.25"/>
</svg>
